icons/arrow-box-out-left.svg

<svg xmlns="http://www.w3.org/2000/svg" width="24" height="24" viewBox="0 0 24 24">
  <path d="M20,4 L20.1762728,4.00509269 C21.75108,4.09633912 23,5.40231912 23,7 L23,7 L23,17 L22.9949073,17.1762728 C22.9036609,18.75108 21.5976809,20 20,20 L20,20 L12,20 L11.8237272,19.9949073 C10.24892,19.9036609 9,18.5976809 9,17 L9,17 L9,16 L9.00672773,15.8833789 C9.06449284,15.3860402 9.48716416,15 10,15 C10.5522847,15 11,15.4477153 11,16 L11,16 L11,17 L11.0067277,17.1166211 C11.0644928,17.6139598 11.4871642,18 12,18 L12,18 L20,18 L20.1166211,17.9932723 C20.6139598,17.9355072 21,17.5128358 21,17 L21,17 L21,7 L20.9932723,6.88337887 C20.9355072,6.38604019 20.5128358,6 20,6 L20,6 L12,6 L11.8833789,6.00672773 C11.3860402,6.06449284 11,6.48716416 11,7 L11,7 L11,8 L10.9932723,8.11662113 C10.9355072,8.61395981 10.5128358,9 10,9 C9.44771525,9 9,8.55228475 9,8 L9,8 L9,7 L9.00509269,6.82372721 C9.09633912,5.24891996 10.4023191,4 12,4 L12,4 L20,4 Z M5.62974124,6.96706393 C6.02203245,6.66203903 6.58926351,6.68976857 6.94974747,7.05025253 C7.34027176,7.44077682 7.34027176,8.0739418 6.94974747,8.46446609 L6.94974747,8.46446609 L4.415,10.999 L14,11 L14.1166211,11.0067277 C14.6139598,11.0644928 15,11.4871642 15,12 C15,12.5522847 14.5522847,13 14,13 L14,13 L4.413,12.999 L6.94974747,15.5355339 L7.03293607,15.6297412 C7.33796097,16.0220325 7.31023143,16.5892635 6.94974747,16.9497475 C6.55922318,17.3402718 5.9260582,17.3402718 5.53553391,16.9497475 L5.53553391,16.9497475 L1.29289322,12.7071068 L1.21968877,12.625449 C1.2173721,12.6225624 1.21507113,12.6196628 1.21278596,12.6167501 C1.20517454,12.6070733 1.20071786,12.6012086 1.19633458,12.5953066 C1.17849009,12.5711307 1.1617187,12.546275 1.14606743,12.5206602 C1.13860692,12.5086131 1.13149883,12.4963944 1.12467117,12.4840621 C1.11379392,12.4642939 1.10337664,12.4438914 1.09365378,12.4230991 C1.08567905,12.4060985 1.07819642,12.3887956 1.07122549,12.371336 C1.06331574,12.3515792 1.05612249,12.3317977 1.04954668,12.3117364 C1.04472872,12.2968513 1.04009773,12.2814633 1.03584514,12.265993 C1.02983363,12.2444365 1.0246398,12.2227461 1.02016515,12.2007941 C1.01670217,12.1833753 1.01362808,12.165949 1.0110178,12.1484669 C1.00376119,12.1003621 1,12.0506203 1,12 L1.00396641,12.0892501 C1.00189498,12.0659949 1.00063489,12.042681 1.00018615,12.0193545 L1,12 C1,11.9935385 1.00006128,11.9870914 1.0001833,11.9806591 C1.00063489,11.957319 1.00189498,11.9340051 1.00396641,11.9107499 C1.00574796,11.8903051 1.00810098,11.8705796 1.01101934,11.8510388 C1.01362808,11.834051 1.01670217,11.8166247 1.02024007,11.7992742 C1.0246398,11.7772539 1.02983363,11.7555635 1.03572097,11.7341604 C1.04009773,11.7185367 1.04472872,11.7031487 1.04973809,11.6878575 C1.05612249,11.6682023 1.06331574,11.6484208 1.07110396,11.6289415 C1.07819642,11.6112044 1.08567905,11.5939015 1.09367336,11.5767785 C1.10337664,11.5561086 1.11379392,11.5357061 1.12487577,11.515723 C1.13149883,11.5036056 1.13860692,11.4913869 1.14599545,11.4792912 C1.1617187,11.453725 1.17849009,11.4288693 1.19631351,11.4048407 C1.22531295,11.3656744 1.25749917,11.3282873 1.29289322,11.2928932 L1.21278596,11.3832499 C1.23766884,11.3515341 1.26442691,11.3213595 1.29289322,11.2928932 L5.53553391,7.05025253 Z"/>
</svg>

<svg xmlns="http://www.w3.org/2000/svg" viewBox="0 0 24 24">
  <path d="M20 4h.18A3 3 0 0 1 23 7v10.18A3 3 0 0 1 20 20h-8.18A3 3 0 0 1 9 17v-1.12a1 1 0 0 1 2 .12v1.12a1 1 0 0 0 1 .88h8.12a1 1 0 0 0 .88-1V6.88A1 1 0 0 0 20 6h-8.12A1 1 0 0 0 11 7v1.12A1 1 0 0 1 9 8V6.82A3 3 0 0 1 12 4h8zM5.63 6.97a1 1 0 0 1 1.32 1.5L4.41 11h9.72a1 1 0 0 1-.12 2h-9.6l2.54 2.54.08.09a1 1 0 0 1-1.5 1.32L1.3 12.71l-.07-.08A1 1 0 0 1 1 12v.09a1 1 0 0 1 0-.07V12a1.02 1.02 0 0 1 .2-.6 1 1 0 0 1 .1-.1l-.09.08a1 1 0 0 1 .08-.09l4.25-4.24z"/>
</svg>
